X:1
T:Title
%%score { ( 1 4 ) | ( 2 3 ) }
L:1/8
M:6/8
K:Bb
V:1 treble nm="Grand Piano"
V:4 treble 
V:2 bass 
V:3 bass 
V:1
 z3 z2[Q:1/4=90] [DF] | [DF]D[K:bass][F,CE] .[F,DF]2[K:treble] [DB] | [EB]2 [EA] [EA]2 [EG] | %3
 [EG]2 [EF] [A,C]2 [A,_D] |[M:5/8] D-D- D3 |[M:1/8] D |[M:3/4] [DB]2 [DA] [DG]2 [DF] | %7
 [DF]2 [CE] [CE]2 [EG] | [=Ec]2 [EB] [EA]2 [EG] |[M:5/8] F-F- F3 |[M:1/8] F | %11
[M:3/4] AG FA G[A,EF] | D-[DB] [_DG] [=DF]2 [DF] | [CF]2 [FA] [=Ec]2 [Ec] |[M:5/8] c-c- c3 | %15
[M:1/8] F |[M:3/4] [Fd]2 [Fc] [FB]2 [FA] | [FA]2 G G2 G | F2 B B2 A |[M:5/8] [DB]-[DB]- [DB]3 |] %20
V:2
 z3 z2 [B,,F,] | z B,B,, z[K:treble] c[K:bass][B,,F,] | [C,F,]2 [C,F,] [C,F,]2 [C,G,] | %3
 [F,A,]2 [F,A,] [F,,F,]2 [F,,F,] |[M:5/8] [B,,F,B,]-[B,,F,B,]- [B,,F,B,]3 |[M:1/8] D, | %6
[M:3/4] [G,,G,]2 [A,,^F,] [B,,G,]2 [=B,,G,] | [C,G,]2 [C,G,] [C,G,]2 [C,G,] | %8
 [C,G,]2 [C,G,] [C,C]2 [C,B,] |[M:5/8] [F,A,]-[F,A,]- [F,A,]3 |[M:1/8] [F,A,] | %11
[M:3/4] [F,E]2 z C z2 | z F, [B,,=E,] [B,,F,]2 [=B,,_A,] | [C,A,]2 [C,C] [C,B,]2 [C,B,] | %14
[M:5/8] [F,A,E]-[F,A,E]- [F,A,E]3 |[M:1/8] [F,A,] |[M:3/4] [B,,B,]2 [C,A,] [D,B,]2 [D,B,] | %17
 [E,B,]2 [E,B,E] [E,B,E]2 [E,B,E] | [F,B,D]2 [F,B,D] [F,CE]2 [F,CE] | %19
[M:5/8] [B,,B,]-[B,,B,]- [B,,B,]3 |] %20
V:3
 x6 | .[B,,F,]3 .B,,3[K:treble][K:bass] | x6 | x6 |[M:5/8] x5 |[M:1/8] x |[M:3/4] x6 | x6 | x6 | %9
[M:5/8] x5 |[M:1/8] x |[M:3/4] CB, [F,A,E][F,E]- [F,B,E]F, | B,,2 z2 z2 | x6 |[M:5/8] x5 | %15
[M:1/8] x |[M:3/4] x6 | x6 | x6 |[M:5/8] x5 |] %20
V:4
 x6 | x2[K:bass] x3[K:treble] x | x6 | x6 |[M:5/8] x5 |[M:1/8] x |[M:3/4] x6 | x6 | x6 | %9
[M:5/8] x5 |[M:1/8] x |[M:3/4] x6 | .[B,F]2 z2 z2 | x6 |[M:5/8] x5 |[M:1/8] x |[M:3/4] x6 | x6 | %18
 x6 |[M:5/8] x5 |] %20

